svg/bootstrap.svg

<svg viewBox="0 0 20 20" xmlns="http://www.w3.org/2000/svg">
<rect width="100%" height="100%" fill="#6831ED"/>
<path fill-rule="evenodd" clip-rule="evenodd" d="M4.73866 2.75C3.71159 2.75 2.95163 3.64893 2.98564 4.62383C3.01829 5.56044 2.97588 6.77346 2.67049 7.76269C2.36419 8.75483 1.84615 9.3833 1 9.464V10.375C1.84615 10.4557 2.36419 11.0842 2.67049 12.0763C2.97588 13.0655 3.01829 14.2785 2.98564 15.2152C2.95163 16.1899 3.71159 17.089 4.73881 17.089H15.2627C16.2898 17.089 17.0496 16.1901 17.0156 15.2152C16.9829 14.2785 17.0253 13.0655 17.3307 12.0763C17.6372 11.0842 18.1538 10.4557 19 10.375V9.464C18.1538 9.3833 17.6372 8.75483 17.3307 7.76269C17.0253 6.77361 16.9829 5.56044 17.0156 4.62383C17.0496 3.64908 16.2898 2.75 15.2627 2.75H4.73851H4.73866ZM13.2034 11.5766C13.2034 12.9189 12.2021 13.7331 10.5405 13.7331H7.71186C7.63095 13.7331 7.55335 13.7009 7.49614 13.6437C7.43892 13.5865 7.40678 13.5089 7.40678 13.428V6.41102C7.40678 6.3301 7.43892 6.2525 7.49614 6.19529C7.55335 6.13807 7.63095 6.10593 7.71186 6.10593H10.5243C11.9098 6.10593 12.8191 6.85644 12.8191 8.00875C12.8191 8.81753 12.2074 9.54164 11.4281 9.66841V9.71066C12.489 9.82705 13.2034 10.5617 13.2034 11.5766ZM10.232 7.07305H8.61919V9.35112H9.97758C11.0277 9.35112 11.6067 8.92827 11.6067 8.17242C11.6067 7.46417 11.1088 7.07305 10.232 7.07305ZM8.61919 10.2551V12.7656H10.2914C11.3846 12.7656 11.9638 12.3269 11.9638 11.5024C11.9638 10.6778 11.3685 10.2549 10.221 10.2549L8.61919 10.2551Z" fill="white"/>
</svg>

<svg xmlns="http://www.w3.org/2000/svg" viewBox="0 0 20 20">
  <rect width="100%" height="100%" fill="#6831ED"/>
  <path fill="#fff" fill-rule="evenodd" d="M4.74 2.75a1.8 1.8 0 0 0-1.75 1.87c.03.94-.01 2.15-.32 3.14-.3 1-.82 1.62-1.67 1.7v.91c.85.09 1.36.71 1.67 1.7.3 1 .35 2.2.32 3.15a1.8 1.8 0 0 0 1.75 1.87h10.52a1.8 1.8 0 0 0 1.76-1.87c-.04-.94 0-2.15.31-3.14.3-1 .82-1.62 1.67-1.7v-.92c-.85-.08-1.36-.7-1.67-1.7-.3-.99-.35-2.2-.31-3.14a1.8 1.8 0 0 0-1.76-1.87H4.74Zm8.46 8.83c0 1.34-1 2.15-2.66 2.15H7.71a.3.3 0 0 1-.3-.3V6.4a.3.3 0 0 1 .3-.3h2.81c1.39 0 2.3.75 2.3 1.9 0 .8-.61 1.53-1.4 1.66v.04c1.07.12 1.78.85 1.78 1.87Zm-2.97-4.5H8.62v2.27h1.36c1.05 0 1.63-.42 1.63-1.18 0-.7-.5-1.1-1.38-1.1Zm-1.61 3.18v2.5h1.67c1.1 0 1.67-.43 1.67-1.26 0-.82-.6-1.25-1.74-1.25h-1.6Z" clip-rule="evenodd"/>
</svg>
